X:1
T:Title
%%score { ( 1 3 ) | ( 2 4 ) }
L:1/8
Q:1/4=100
M:4/4
K:Ab
V:1 bass nm="Grand Piano"
V:3 bass 
V:2 bass 
V:4 bass 
V:1
 .[E,C]2 .[F,C]2[K:treble] [G,D]2 [DE]2 | [DG]2 [Fd]2 [Ec]4 | [=Dc]FGA [Dc]2 B2 | B6 z2 | %4
w: B.~D.~Ackley * * *||||
 CECE [G,D]2 [DE]2 | [DG]2 [Fd]2 [Ec]4 | [=Dc]FGA [Ec]2 [_DB]2 | [CA]6 z2 | %8
w: ||||
 [Ec]2 [CE]2 z [Ec][Fd][Ec] | [DF]6 z2 | [DB]2 [DE]2 [Ec]BFG | [CE-]4 E2 z2 | %12
w: ||||
 [Ec]2 [CE]2 z [Ec][Fd][Ec] | [DF]4- [DF]FGA | [Ec]2 [DB]2 [DG]2 [DE]2 | [CA]6 z2 |] %16
w: ||||
V:2
 A,,EA,,E B,,E,G,E, | E,,E,G,E, A,E,C,A,, | B,,2 [A,B,=D]2 B,,2 [A,B,D]2 | %3
 [E,G,E][F,A,][G,B,][F,A,] [E,G,][D,B,][C,A,][B,,G,] | .[A,,E,]2 .[=A,,_G,]2 B,,E,=G,E, | %5
 E,,E,G,E, A,E,C,A,, | B,,2 [A,B,=D]2 E,,E,G,E, | A,F,E,C, A,,2 z2 | A,,E,A,E, F,,F,=A,F, | %9
 B,,D,F,B, B,,F,B,A, | z4 z2 D2 | z E, =A,,2 .[B,,G,]2 z2 | A,,E,A,E, F,,F,=A,F, | %13
 B,,D,F,B, z =D [A,B,D]2 | E,,E,G,E, E,,E,G,E, | A,F,E,C, A,,2 z2 |] %16
V:3
 x4[K:treble] x4 | x8 | x8 | z =DED EGE_D | x8 | x8 | x8 | x8 | x8 | x8 | x8 | %11
 .A,2 F,_G, DE,/F,/ =G,/F,/E, | x8 | x8 | x8 | x8 |] %16
V:4
 x8 | x8 | x8 | x8 | x8 | x8 | x8 | x8 | x8 | x8 | E,,E,G,E, E,,E,G,E, | A,,2 z2 z4 | x8 | %13
 z4 B,,2 z2 | x8 | x8 |] %16

